src/DGGeoclicker/skin/dark/img/DGFirmCard__phoneIcon_dark.svg

<svg xmlns="http://www.w3.org/2000/svg" width="10" height="10"><path fill-rule="evenodd" clip-rule="evenodd" fill="#A0A0A0" d="M9.181 9.05c-.508.506-1.134.823-1.79.95-1.235-.159-2.383-.583-3.393-1.212l-2.705-2.696c-.654-1.039-1.09-2.227-1.241-3.503.138-.625.442-1.221.931-1.707l.82-.817 2.184 2.176v.549l-.546.542c-.452.451-.453 1.183 0 1.634l1.641 1.634c.452.451 1.187.451 1.639 0l.523-.521h.594l2.162 2.154-.819.817z"/></svg>

<svg xmlns="http://www.w3.org/2000/svg" width="10" height="10">
    <path d="M 9.181,9.05 C 8.673,9.556 8.047,9.873 7.391,10 6.156,9.841 5.008,9.417 3.998,8.788 L 1.293,6.092 C 0.639,5.053 0.203,3.865 0.052,2.589 0.19,1.964 0.494,1.368 0.983,0.882 L 1.803,0.065 3.987,2.241 V 2.79 L 3.441,3.332 c -0.452,0.451 -0.453,1.183 0,1.634 L 5.082,6.6 c 0.452,0.451 1.187,0.451 1.639,0 L 7.244,6.079 H 7.838 L 10,8.233 9.181,9.05 z" fill="#a0a0a0" fill-rule="evenodd"/>
</svg>
